X:2586
T:Cantar Relixoxu (CT 167)
R:Relixosu
C:Tradicional
S:Música Tradicional Asturiana, (C) Tello & Tito. Asturies, 2001.
S:http://pagina.de/MusTradAst <telloytito@asturies.org>
N:Canto Religioso que, hasta hace varios años, entonaba en la iglesia el pueblo de San Esteban de Relamiego, ayuntamiento de Tinéu, al final del Calvario celebrado el Jueves y Viernes Santo.
O:San Esteban de Relamiego (Tinéu)
A:Asturies
Z:Cancioneru de Torner 167
M:6/8
L:1/8
Q:3/8=72
W:Si por un pecado
W:vas a la misión
W:y no te arrepientes,
W:más condenación.
W:
W:Si vas a la ilesia
W:repara al entrar:
W:a Cristo enclavado
W:allí lo verás.
W:
W:-----------------------
W:
W:a) Al salir el sacerdote revestido para oficiar:
W:
W:Adorái, fieles cristianos,
W:al que sale escondido;
W:con la ropa consagrada
W:representa a Cristo vivo.
W:
W:b) Al salir del templo una vez terminada la misa:
W:
W:Quede con Dios La Señora
W:écheme la bendición,
W:guíeme por buen camino,
W:líbreme de perdición.
W:
W:----------------------------
W:
W:Con esta melodía se canta también en la iglesia por cuatro mujeres,
W:el Jueves y Viernes Santos, el siguiente romance:
W:
W:Jueves Santo, Jueves Santo,
W:tres días antes de Pascua,
W:cuando el Redentor del mundo
W:a sus discípulos llama.
W:
W:Llámalos de dos en dos,
W:de cuatro en cuatro llegaban.
W:Desque los vio todos juntos,
W:rica cena que les daba.
W:-¿Cuál de vosotros los míos
W:morirá por mi mañana?
W:Miran unos para otros,
W:todos les tiembla la barba.
W:
W:El que barba no tenía
W:la color se le mudaba,
W:si no fue San Juan Bautista
W:que predica en la montaña.
W:
W:-Por Tí moriré, mi Dios,
W:por Tí moriré mañana,
W:si las culpas de los hombres 
W:con la mi muerte se paga.
W:
W:-Nuestra Señora me valga,
W:válgame la Madre Santa:
W:tres sillas hai en el cielo,
W:una para ti guardada.
K:Gm
GG|(B2 A c2) A|G ^F2-F3|G2 G ^F2 A|G3-GAB|
(d>cB c2) B|A A2-A3|c2 A {B}A2 G|G3-G :||


